src/_includes/svg/yellow.svg

<svg xmlns="http://www.w3.org/2000/svg" fill="none" aria-hidden="true" viewBox="0 0 270.874 345"><mask id="a" width="271" height="346" x="0" y="0" Units="userSpaceOnUse" style="mask-type:alpha"><rect width="270.874" height="345" x=".126" y=".243" class="cls-1" rx="10"/></mask><g clip-path="url(#b)" mask="url(#a)"><path d="M50.278 210.003v58.188h58.189v-58.188H50.278Z" class="cls-2"/><path d="M279.411 381.789v-57.464h34.795c-25.144-41.223-70.519-68.744-122.313-68.744h-4.545c-19.788 0-38.632 4.016-55.778 11.28h32.98v57.464h-57.431v-44.161c-38.012 25.765-62.98 69.305-62.98 118.693 0 79.124 64.116 143.276 143.194 143.276h4.545c10.329 0 20.393-1.107 30.088-3.174v-42.227h57.43v15.533c33.866-26.208 55.675-67.253 55.675-113.393 0-5.773-.354-11.472-1.018-17.068h-54.657l.015-.015Zm0 57.464H164.55v-57.464h114.861v57.464Z" class="cls-3"/><path d="M221.966 324.888h-57.431v57.464h57.431v-57.464Z" class="cls-4"/><path d="M164.154 324.163v58.189h58.189v-58.189h-58.189Z" class="cls-2"/></g><defs><clipPath id="b"><path d="M44.14 210.727h350.133v409.512H44.14z" class="cls-4"/></clipPath></defs></svg>

<svg width="278" height="353" viewBox="0 0 278 353" fill="none" xmlns="http://www.w3.org/2000/svg">
<mask id="mask0_270_316" style="mask-type:alpha" maskUnits="userSpaceOnUse" x="0" y="0" width="271" height="346">
<rect x="0.126465" y="0.24292" width="270.874" height="345" rx="10" fill="#95D2F9"/>
</mask>
<g mask="url(#mask0_270_316)">
<g clip-path="url(#clip0_270_316)">
<path d="M50.2782 210.003V268.191H108.467V210.003H50.2782Z" fill="#DD9C3E"/>
<path d="M279.411 381.789V324.325H314.206C289.062 283.102 243.687 255.581 191.893 255.581H187.348C167.56 255.581 148.716 259.597 131.57 266.861H164.55V324.325H107.119V280.164C69.107 305.929 44.1396 349.469 44.1396 398.857C44.1396 477.981 108.255 542.133 187.333 542.133H191.878C202.207 542.133 212.271 541.026 221.966 538.959L221.966 496.732H279.396V512.265C313.262 486.057 335.071 445.012 335.071 398.872C335.071 393.099 334.717 387.4 334.053 381.804H279.396L279.411 381.789ZM279.411 439.253H164.55V381.789H279.411V439.253Z" fill="#FBB23E"/>
<path d="M221.966 324.888H164.535V382.352H221.966V324.888Z" fill="white"/>
<path d="M164.154 324.163V382.352H222.343V324.163H164.154Z" fill="#DD9C3E"/>
</g>
</g>
<defs>
<clipPath id="clip0_270_316">
<rect width="350.133" height="409.512" fill="white" transform="translate(44.1396 210.727)"/>
</clipPath>
</defs>
</svg>
